src/lib/packages/icons/src/assets/line/cloud-times.svg

<svg width="24" height="24" viewBox="0 0 24 24" fill="none" xmlns="http://www.w3.org/2000/svg">
<path d="M16 8.25C15.794 8.25 15.5931 8.26001 15.3921 8.28101C15.0721 7.83401 14.7031 7.42402 14.2881 7.05902C12.9641 5.89302 11.264 5.25098 9.5 5.25098C5.502 5.25098 2.25 8.50298 2.25 12.501C2.25 16.499 5.502 19.751 9.5 19.751H16C19.171 19.751 21.75 17.172 21.75 14.001C21.75 10.83 19.171 8.25 16 8.25ZM16 18.25H9.5C6.329 18.25 3.75 15.671 3.75 12.5C3.75 9.329 6.329 6.75 9.5 6.75C10.898 6.75 12.2469 7.25902 13.2959 8.18402C13.7239 8.56202 14.0931 8.99901 14.3931 9.48401C14.5551 9.74801 14.8669 9.88503 15.1689 9.82703C15.4449 9.77503 15.717 9.75 16 9.75C18.344 9.75 20.25 11.656 20.25 14C20.25 16.344 18.344 18.25 16 18.25ZM14.03 12.53L13.0601 13.5L14.03 14.47C14.323 14.763 14.323 15.238 14.03 15.531C13.884 15.677 13.692 15.751 13.5 15.751C13.308 15.751 13.116 15.678 12.97 15.531L12 14.561L11.03 15.531C10.884 15.677 10.692 15.751 10.5 15.751C10.308 15.751 10.116 15.678 9.96997 15.531C9.67697 15.238 9.67697 14.763 9.96997 14.47L10.9399 13.5L9.96997 12.53C9.67697 12.237 9.67697 11.762 9.96997 11.469C10.263 11.176 10.738 11.176 11.031 11.469L12.001 12.439L12.9709 11.469C13.2639 11.176 13.739 11.176 14.032 11.469C14.323 11.762 14.323 12.238 14.03 12.53Z" fill="currentColor"/>
</svg>

<svg xmlns="http://www.w3.org/2000/svg" width="24" height="24" fill="none"><path fill="currentColor" d="M16 8.25c-.206 0-.407.01-.608.031A7.24 7.24 0 0 0 9.5 5.251c-3.998 0-7.25 3.252-7.25 7.25s3.252 7.25 7.25 7.25H16a5.756 5.756 0 0 0 5.75-5.75A5.757 5.757 0 0 0 16 8.25Zm0 10H9.5a5.756 5.756 0 0 1-5.75-5.75A5.756 5.756 0 0 1 9.5 6.75c1.398 0 2.747.509 3.796 1.434.428.378.797.815 1.097 1.3a.749.749 0 0 0 .776.343A4.44 4.44 0 0 1 16 9.75 4.254 4.254 0 0 1 20.25 14 4.254 4.254 0 0 1 16 18.25Zm-1.97-5.72-.97.97.97.97a.75.75 0 0 1-1.06 1.061l-.97-.97-.97.97a.748.748 0 0 1-1.06 0 .75.75 0 0 1 0-1.061l.97-.97-.97-.97a.75.75 0 1 1 1.061-1.061l.97.97.97-.97a.75.75 0 1 1 1.059 1.061Z"/></svg>
